X: 123
T: Song of the White Horse Riders (a)
C: Teton Sioux band 1911-1914
N: Derived from sioux123.krn
O: South Dakota, U.S.A.
N: Teton Sioux Music by Frances Densmore, 1918
Z: transcribed to **kern format by Craig Sapp
L: 1/8
M: 2/4
Q: 1/4=58
K: E clef=bass
%%linebreak <none>
E E F E [I:setbarnb 2]| 
B, E E/ E3/ ||  
[M:3/4]B,2G, G,G,2 ||  
[M:2/4]B, B, E =C | 
B, =C C/ C C/ ||  
[M:3/4]B,2G, G,G,2 ||  
[M:2/4]B, B, C B, | 
A, B, B,/ B, B,/ ||  
[M:3/4]G,2E, E,E,2 ||  
[M:2/4]G, G, B, G, | 
E,/ z/ G, B,/ G, G,/ | 
E,2E, E, | 
E,4 | 
E,4 ||  
[M:3/4]B,2G, G,G,2 ||  
[M:2/4]B, B, E =C | 
B, =C C/ C C/ ||  
[M:3/4]B,2G, G,G,2 ||  
[M:2/4]B, B, C B, | 
A,/ z/ B, B,/ B, B,/ ||  
[M:3/4]G,2E, E,E,2 ||  
[M:2/4]G, G, B, G, | 
E,/ z/ G, B,/ G, G,/ | 
E,2E, E, | 
E,4 | 
E,4 |]  



